!!!COM: Paul Hindemith
!!!OTL: [T618_Hin-w13p8m19-27]
**kern	**kern	**dynam
*part1	*part1	*part1
*staff2	*staff1	*
*I"Piano	*	*
*I'Pno.	*	*
!!pagebreak:original
*clefF4	*clefG2	*
*k[]	*k[]	*
*C:	*C:	*
*M2/4	*M2/4	*
=1	=1	=1
!	!LO:TX:t=[quarter]=146	!
4r	4r	.
4DD#X^ 4D#X	4e^ 4ee	ff
=2	=2	=2
*M4/4	*M4/4	*
*^	*^	*
4r	2GGG#X 2GG#X	2.a 2.b 2.aa	8r	mf
.	.	.	4ee-X 4ff	.
4F#X 4B 4d	.	.	.	.
.	.	.	4ee- 4ff	.
4r	2GGG# 2GG#	.	.	.
.	.	.	4ee- 4ff	.
4F# 4B 4d	.	[4g#X [4a#X [4gg#X	.	.
.	.	.	8ee- 8ff	.
=3	=3	=3	=3	=3
4r	2GGG#X 2GG#X	1ryy	8g#] 8a#] 8gg#]	< <
.	.	.	4a 4b 4aa	.
4F#X 4B 4d	.	.	.	.
.	.	.	[8cc^ [8ee-X [8bb	.
2r	4GGG#^ 4GG#	.	8ccL] 8ee-] 8bb]	[ [
.	.	.	8bJ 8dd 8gg	.
.	[4GGG#^ [4GG#	.	[4b-X [4dd-X [4aa	.
=4	=4	=4	=4	=4
4F#X 4B 4d	4GGG#] 4GG#]	2ryy	8b-L] 8dd-] 8aa]	>
.	.	.	8f 8ff	.
4r	2GGG#X 2GG#X	.	8e 8ee	.
.	.	.	8dJ 8dd	.
4F# 4B 4d	.	4a 4b 4aa	8r	.
.	.	.	4ee-X 4ff	.
4r	4GGG# 4GG#	4a 4b 4aa	.	.
.	.	.	8ee- 8ff	]
=5	=5	=5	=5	=5
4r	2BBB 2BB	2.cc 2.dd 2.ccc	8r	f
.	.	.	4gg-X 4aa-X	.
4An 4d 4fn	.	.	.	.
.	.	.	4gg- 4aa-	.
4r	2BBB 2BB	.	.	.
.	.	.	4gg- 4aa-	.
4A 4d 4f	.	[4b [4cc#X [4bb	.	.
.	.	.	8gg- 8aa-	.
!!linebreak:original
=6	=6	=6	=6	=6
4r	2BBB 2BB	1ryy	8b] 8cc#X] 8bb]	.
.	.	.	4ccn 4dd 4ccc	.
4A 4d 4f	.	.	.	.
.	.	.	[8ee-X^ [8gg-X [8ddd	.
2r	4BBB^ 4BB	.	8ee-L] 8gg-] 8ddd]	.
.	.	.	8ddJ 8ff 8bb-X	.
.	[4BBB^ [4BB	.	[4cc#X [4ee- [4cccn	.
=7	=7	=7	=7	=7
4A 4d 4f	4BBB] 4BB]	8ryy@	8cc#L] 8ee-] 8ccc]	.
.	.	8ryy@	8a-X 8aa-X	.
4r	2BBB 2BB	8ryy@	8g 8gg	.
.	.	8ryy@	8fJ 8ff	.
4A 4d 4f	.	4cc 4dd 4ccc	8r	.
.	.	.	4gg-X 4aa-X	.
4r	4BBB 4BB	4cc 4dd 4ccc	.	.
.	.	.	8gg- 8aa-	.
*	*	*v	*v	*
*clefG2	*	*	*
=8	=8	=8	=8
8ryy@	8d^L 8f	(8r	p
.	.	16qqbb#X/LL	fz
.	.	16qqddd/JJ	.
8ryy@	[8d^J [8f	4ccc#X^)	.
8a-X'L 8cc	4d] 4f]	.	.
8a-'J 8cc	.	[8ccc#	fz
12ryy@	8d^L 8f	12ccc#L]	.
24ryy@	.	12ccc#	.
24ryy@	[8d^J [8f	.	.
12ryy@	.	[12ccc#^J	.
16ffLL	4d] 4f]	12ccc#L]	.
16cc	.	.	.
.	.	12ccc#	.
16ee-X	.	.	.
.	.	12ccc#J	.
16b-XJJ	.	.	.
*v	*v	*	*
=9	=9	=9
4a	(24dddLL	.
.	24eee	.
.	24fff	.
.	24eee	.
.	24ddd	.
.	24cccJJ)	.
16ffLL	4.ddd	.
16cc	.	.
16ee-X	.	.
16b-XJJ	.	.
4a	.	.
.	(16qqccc#X/LL	fz
.	16qqeee-X/JJ	.
.	4ddd^)	.
16ffLL	.	.
16cc	.	.
16ee-	[8ddd	fz
16b-JJ	.	.
=	=	=
*-	*-	*-
!!!system-decoration: [({(s1,s2)})]
